X:215
T: Vogellied (3-18), S. 63
N: P0990
O: Lothringen
S: PINCK, Louis: Verklingende Weisen, Bd3, Metz 1933]
R: yyy?]
M: 2/4
L: 1/8
K: G
D | GBAG | FFz
D | EGFE | D2z
G | ccBG | ccz
e | dBcA | G2z

